X:153
T: Uitwykelingslied (Uebersiedlungslied)
N: A0186
O: Europa, Mitteleuropa, Deutschland
N: Willems Oude vlaemsche liederen (1848) No. 19.
R: Romanze, Ballade, Lied
M: 6/4
L: 1/8
K: G
D2 | G2F2G2d2c2d2 | _B4A2G4
G2 | A2G2A2d2c2d2 | A6z4
A2 | _B2A2G2G2A2B2 | c6d4
c2 | _B2A2G2FED2d2 | _B2c2B2A2G2F2 | G6z4

@@@ Tune index: 153
